icons-dark/actions/22/edit-text-frame-update.svg

<svg xmlns="http://www.w3.org/2000/svg" viewBox="0 0 22 22">
  <defs id="defs3051">
    <style type="text/css" id="current-color-scheme">
      .ColorScheme-Text {
        color:#eff0f1;
      }
      .ColorScheme-Highlight {
        color:#3daee9;
      }
      </style>
  </defs>
 <path 
    style="fill:currentColor;fill-opacity:1;stroke:none" 
     d="m 9,3 0,1 8,0 0,10 -4,0 0,1 0,3 -8,0 0,-10 -1,0 0,11 1,0 8,0 1,0 0,-0.0098 L 14.007812,19 18,15.007812 18,15 18,13.59375 18,3 17,3 9,3 m 0,3 0,1 6,0 0,-1 -6,0 m -2,3 0,1 8,0 0,-1 -8,0 m 0,3 0,1 8,0 0,-1 -8,0 m 0,3 0,1 4,0 0,-1 -4,0" 
    class="ColorScheme-Text"
    />  
  <path
     style="fill:currentColor;fill-opacity:1;stroke:none" 
      class="ColorScheme-Highlight"
     d="M 3,3 5,6 7,3 Z" />
</svg>

<!DOCTYPE svg>
<svg viewBox="0 0 22 22" version="1.1" xmlns="http://www.w3.org/2000/svg">
    <defs>
        <style type="text/css" id="current-color-scheme">
            .ColorScheme-Text {
                color:#eff0f1;
            }
            .ColorScheme-ButtonFocus {
                color:#3daee9;
            }
        </style>
    </defs>
    <path class="ColorScheme-Text" style="fill:currentColor; fill-opacity:1; stroke:none" d="M 9 3 L 9 4 L 13 4 L 13 8 L 17 8 L 17 18 L 5 18 L 5 8 L 4 8 L 4 19 L 18.0078 19 L 18 7 L 14 3 L 9 3 Z M 9 6 L 9 7 L 11 7 L 11 6 L 9 6 Z M 7 9 L 7 10 L 15 10 L 15 9 L 7 9 Z M 7 12 L 7 13 L 15 13 L 15 12 L 7 12 Z M 7 15 L 7 16 L 15 16 L 15 15 L 7 15 Z"/>
    <path class="ColorScheme-ButtonFocus" style="fill:currentColor; fill-opacity:1; stroke:none" d="M 3 3 L 5 6 L 7 3 L 3 3 Z"/>
</svg>
